X:98
%%musicspace -10
%%titlespace -15
T:New Rigged Ship
M:6/8
L:1/8
K:D
fe | "D"dcd d2 f | dcd d2 f | "A"ecA ABc | ecA ABc |
"D"dcd d2 f | dcd d2 f | "A7"ecA ABc | "D"d3- d :|
|: fg | "D"a2 f a2 f | ded dfa | "G"b2 g b2 g | "A7"efe efg |
"D"a2 f a2 f | dcd d2 f | "A7"ecA ABc | "D"d3- d :|

